X: 3564
T: Big Sciote
R: reel
M: 4/4
K: Gmajor
DEF|:G2 BG AGED|E G2 A G2 Bc|BAGB AGED|E G2 A GDEF|
G2 GG B2 d2|e3 f e2 dc|BAGB AGED|1 E G2 A GDEF:|2 E G2 A Gdfd||
g2 g2 e2 g2|a3 b a2 ef|ge (3fgf edBd|e3 e edef|
gefg edBd|e3 f e2 dc|BAGB AGED|1 E G2 A Gdfd:|2 E G2 A GDEF||
"(Last time)" gefg edBd|e3 f e2 ge|dged BGAF|G2 A2 B4||

